X: 37749
T: Solstice, The
R: reel
M: 4/4
K: Fmajor
A,C|:DdAF DE2D|CE (3EEE FEDC|DdAF DE2D|1 CEA,C D2DC,:|2 CEA,C D2Ac||
dD (3DDD cD (3DDD|=BG (3GGG AFDF|CF2F2A2A-|AC2f ec=Bc|
dD (3DDD cD (3DDD|=BG (3GGG AFDF|CF2F2F2F|GFEF D2||

